X:6
T:Condensed Exercise VI - Descending Arpeggios
C:Grossi Method
S:November 10, 1951
M:4/4
L:1/8
Q:1/4=80
K:C
%%text Scale-tone arpeggios descending, simile
cGEC dAFD|eBGE fcAF|gdBG aecA|bfdB c'gec|
cegc' Bdfb|Acea GBdg|FAcf EGBe|DFAd CEGc|C8|]
